X: 42338
T: Wee Totum Fogg
R: three-two
M: 3/2
K: Amixolydian
|:a2 ga f2|ge eg fe|da ca Bd|cA Ac BA:|
|:A/B/c/d/ eA cA|GB Bd cB|A/B/c/d/ eA cA|GB Bd cA:|

